X: 25182
T: Major Molle
R: reel
M: 4/4
K: Gmajor
|:Aeed TcABG|Aeed Tc2 Bc|Aeed efTge|dBGB edcB:|
AE e,/E/E/ (cBA) BG|AE e,/E/E/ Tc2 Bc|AE e,/E/E/ (cBA) Bd|BGGB Td2 cB|
AE e,/E/E/ (cBA) BG|AE e,/E/E/ Tc2Bc|Aeed efTge|dBGB edcB|

